X:1
T:What is the cause (Ps 10)
T:John Dowland
T:Source : The Whole Book of Psalms---London---Th.Est(e)---1592 Editor : André Vierendeels (12/09/16). Notes : Original clefs : C1, C3, C4, F4 Editorial accidentals above the staff Original note values have been halved
T:What is the cause (Ps 10)
T:©
C:John Dowland
Z:©
%%score [ 1 [ 2 3 ] 4 ]
L:1/8
Q:1/4=120
M:2/2
K:F
V:1 treble nm="Soprano" snm="S"
V:2 treble-8 nm="Tenor 1" snm="T 1"
V:3 treble-8 nm="Tenor 2" snm="T 2"
V:4 bass nm="Bass" snm="B"
V:1
 A4 D2 F2 | F2 E2 F4 | F2 F6 || A4 A2 B2 | c3 _e d4 || F4 E2 D2 | G2 B2 A4 |[M:3/4] A2 A4 || %8
w: What is the|cause that thou,|O Lord,|art now so|far from thine,'|and kee- pest|close thy con-|te- nance,|
 d2 c4 |[M:2/2] B4 A3 A | G8 |] %11
w: from us,|this trou- blous|time?|
V:2
 A4 B2 c2 | B3 G c4 | c2 c6 || d4 c2 f2 | _e3 c f4 || d4 e2 f2 | d2 d2 d4 |[M:3/4] d2 d4 || d2 f4 | %9
w: What is the|cause that thou,|O Lord,|art now so|far from thine',|and kee- pest|close thy con-|te- nance,|from us,|
[M:2/2] d4 d3 c | =B8 |] %11
w: this trou- blous|time?|
V:3
 F4 F2 F2 | G2 G2 A4 | A2 A6 || F4 F2 F2 | G2 A2 B4 || A4 A2 A2 | G2 G2 ^F4 |[M:3/4] ^F2 F4 || %8
w: What is the|cause that thou,|O Lord,|art now so|far from thine',|and kee- pest|close thy con-|te- nance,|
 G2 A4 |[M:2/2] G2 G2 ^F4 | G8 |] %11
w: from us,|this trou- blous|time?|
V:4
 D,4 B,,2 A,,2 | G,,2 G,,2 F,,4 | F,,2 F,,6 || D,4 F,2 D,2 | _E,2 C,2 B,,4 || D,4 ^C,2 D,2 | %6
w: What is the|cause that thou,|O Lord,|art now so|far from thine',|and kee- pest|
 B,,2 G,,2 D,4 |[M:3/4] D,2 D,4 || B,,2 A,,2 F,,2 |[M:2/2] G,,4 D,4 | G,,8 |] %11
w: close thy con-|te- nance,|from us, this|trou- blous|time?|

